X:1
T:Only a Step
T:William Howard Doane
T:Only a Step
T:Public Domain
T:Public Domain
C:William Howard Doane
Z:Public Domain
%%score 1 ( 2 3 )
L:1/8
M:6/8
K:Ab
V:1 treble 
V:2 bass 
V:3 bass 
V:1
 [Ec][Ec][Ec] [Fd]2 [Ec] | [FB]3 [FA]2 [DF] | E2 [EA] [EA]2 [Ec] | [EB]3- [EB]3 | %4
w: 1.~On- ly a step to|Je- sus! Then|why not take it|now? *|
w: 2.~On- ly a step to|Je- sus! Be-|lieve, and thou shalt|live; *|
w: 3.~On- ly a step to|Je- sus! A|step from sin to|grace; *|
w: 4.~On- ly a step to|Je- sus! O|why not come and|say, *|
 [Ec][Ec][Ec] [Fd]2 [Ec] | [FB]3 [FA]2 [DF] | [CE]2 [CA] [Ec]2 [DB] | [CA]3- [CA]3 || %8
w: Come, and thy sin con-|fess- ing, To|Him, thy Sav- ior,|bow. *|
w: Lov- ing- ly now He’s|wait- ing, And|rea- dy to for-|give. *|
w: What has thy heart de-|cid- ed The|mo- ments fly a-|pace? *|
w: “Glad- ly to Thee my|Sav- ior, I|give my- self a-|way.” *|
"^Refrain" [DF][DF][DF] [FA]3 | [CE][CE][CE] [Ec]3 | [Ec]2 [Ed] [Ee]2 [Ac] | [GB]3- [GB]3 z | %12
w: ||||
w: ||||
w: ||||
w: ||||
 [GB][GB][GB] [GB]2 [Ac] | [GB]3 [GB]3 | [Ac][Ac][Ac] [Ac]2 [Ad] | [Ae]3 [Ac]3 | %16
w: ||||
w: ||||
w: ||||
w: ||||
 [Ec][Ec][Ec] [Fd]2 [Ec] | [FB]3 [FA]2 [DF] | [CE]2 [CA] [Ec]2 [DB] | [CA]6 |] %20
w: ||||
w: ||||
w: ||||
w: ||||
V:2
 [A,,A,][A,,A,][A,,A,] [A,,A,]2 [A,,A,] | [D,A,]3 [D,D]2 [D,A,] | [C,A,]2 [C,A,] [C,A,]2 [A,,A,] | %3
w: ~ ~ ~ ~ ~|~ ~ ~|~ ~ ~ ~|
 [E,G,]3- [E,G,]3 | [A,,A,][A,,A,][A,,A,] [A,,A,]2 [A,,A,] | [D,A,]3 [D,D]2 [D,A,] | %6
w: ~ *|~ ~ ~ ~ ~|~ ~ ~|
 [E,A,]2 [E,A,] [E,A,]2 [E,G,] | [A,,A,]3- [A,,A,]3 || [D,A,][D,A,][D,A,] [D,A,]3 | A,A,A, A,3 | %10
w: ~ ~ ~ ~|~ *|On- ly a step,|on- ly a step,|
 A,2 [A,B,] [A,C]2 [A,E] | [E,E]3- [E,E]3 z | [E,E][E,E][E,E] [E,E]2 [E,E] | [E,E]3 [E,E]3 | %14
w: thee; Come, and thy|con- *|fess- ing, Thou shalt re-|ceive a|
 [A,E][A,E][A,E] [A,E]2 [A,B,] | [A,C]3 [A,E]3 | [A,,A,][A,,A,][A,,A,] [A,,A,]2 [A,,A,] | %17
w: bless- ing; Do not re-|ject the|mer- cy He free- ly|
 [D,A,]3 [D,D]2 [D,A,] | [E,A,]2 [E,A,] [E,A,]2 [E,G,] | [A,,A,]6 |] %20
w: of- fers thee.|||
V:3
 x6 | x6 | x6 | x6 | x6 | x6 | x6 | x6 || x6 | A,A,A, A,3 | A,2 x4 | x7 | x6 | x6 | x6 | x6 | x6 | %17
w: |||||||||Come, He waits for|sin|||||||
 x6 | x6 | x6 |] %20
w: |||

